src/assets/img/icons/mask/icon-areas-fintech.svg

<svg width="69" height="69" viewBox="0 0 69 69" fill="none" xmlns="http://www.w3.org/2000/svg">
<path d="M27.8226 62.3226H41.1774V64.5484H27.8226V62.3226ZM21.1452 32.2742C21.1452 33.129 20.8224 33.9093 20.2926 34.5C20.8224 35.0907 21.1452 35.871 21.1452 36.7258C21.1452 38.5663 19.647 40.0645 17.8065 40.0645V42.2903H15.5806V40.0645H12.2419V28.9355H15.5806V26.7097H17.8065V28.9355C19.647 28.9355 21.1452 30.4337 21.1452 32.2742ZM18.9194 36.7258C18.9194 36.1118 18.4194 35.6129 17.8065 35.6129H14.4677V37.8387H17.8065C18.4194 37.8387 18.9194 37.3399 18.9194 36.7258ZM18.9194 32.2742C18.9194 31.6601 18.4194 31.1613 17.8065 31.1613H14.4677V33.3871H17.8065C18.4194 33.3871 18.9194 32.8882 18.9194 32.2742ZM53.4194 44.5161H55.6452V63.4355C55.6452 66.5036 53.1487 69 50.0806 69H18.9194C15.8513 69 13.3548 66.5036 13.3548 63.4355V50.8398C5.677 49.2737 0 42.4137 0 34.5C0 26.5863 5.677 19.7263 13.3548 18.1602V5.56452C13.3548 2.49642 15.8513 0 18.9194 0H50.0806C53.1487 0 55.6452 2.49642 55.6452 5.56452V14.4677H53.4194V10.0161H15.5806V20.0611L14.6259 20.198C7.55666 21.212 2.22581 27.3607 2.22581 34.5C2.22581 41.6393 7.55666 47.788 14.6259 48.802L15.5806 48.9389V57.871H53.4194V44.5161ZM15.5806 5.56452V7.79032H53.4194V5.56452C53.4194 3.72399 51.9212 2.22581 50.0806 2.22581H18.9194C17.0788 2.22581 15.5806 3.72399 15.5806 5.56452ZM53.4194 63.4355V60.0968H15.5806V63.4355C15.5806 65.276 17.0788 66.7742 18.9194 66.7742H50.0806C51.9212 66.7742 53.4194 65.276 53.4194 63.4355ZM7.21594 26.7532C5.43301 28.9322 4.45161 31.6835 4.45161 34.5C4.45161 41.2497 9.94386 46.7419 16.6935 46.7419C19.51 46.7419 22.2613 45.7595 24.4404 43.9765L23.0303 42.2545C21.2484 43.7124 18.9971 44.5161 16.6935 44.5161C11.1714 44.5161 6.67742 40.0232 6.67742 34.5C6.67742 32.1965 7.48112 29.9451 8.93909 28.1644L7.21594 26.7532ZM26.1712 42.2468C27.9541 40.0678 28.9355 37.3165 28.9355 34.5C28.9355 27.7503 23.4432 22.2581 16.6935 22.2581C13.8771 22.2581 11.1258 23.2405 8.9467 25.0235L10.3568 26.7455C12.1387 25.2876 14.39 24.4839 16.6935 24.4839C22.2157 24.4839 26.7097 28.9768 26.7097 34.5C26.7097 36.8035 25.906 39.0549 24.448 40.8356L26.1712 42.2468ZM33.3871 34.5C33.3871 25.7881 26.5771 18.4808 17.8852 17.8668L17.7277 20.0855C25.2609 20.6197 31.1613 26.951 31.1613 34.5C31.1613 42.049 25.2609 48.3803 17.7277 48.9145L17.8852 51.1332C26.5771 50.5192 33.3871 43.2119 33.3871 34.5ZM37.8387 51.1936V44.5161H35.6129V31.1613H37.8387V24.4839H40.0645V31.1613H42.2903V44.5161H40.0645V51.1936H37.8387ZM37.8387 42.2903H40.0645V33.3871H37.8387V42.2903ZM46.7419 46.7419V30.0484H44.5161V23.371H46.7419V20.0323H48.9677V23.371H51.1936V30.0484H48.9677V46.7419H46.7419ZM46.7419 27.8226H48.9677V25.5968H46.7419V27.8226ZM57.871 32.2742H60.0968V38.9516H57.871V42.2903H55.6452V38.9516H53.4194V32.2742H55.6452V16.6935H57.871V32.2742ZM57.871 34.5H55.6452V36.7258H57.871V34.5ZM66.7742 14.4677H69V27.8226H66.7742V37.8387H64.5484V27.8226H62.3226V14.4677H64.5484V11.129H66.7742V14.4677ZM66.7742 16.6935H64.5484V25.5968H66.7742V16.6935Z" fill="url(#paint0_linear)"/>
<defs>
<linearGradient id="paint0_linear" x1="34.5" y1="69" x2="34.5" y2="0" gradientUnits="userSpaceOnUse">
<stop stop-color="#7F85A8"/>
<stop offset="1" stop-color="#6B6B8B"/>
</linearGradient>
</defs>
</svg>

<svg xmlns="http://www.w3.org/2000/svg" width="69" height="69" fill="none"><path fill="url(#paint0_linear)" d="M27.82 62.32h13.36v2.23H27.82v-2.23zm-6.67-30.05c0 .86-.33 1.64-.86 2.23a3.34 3.34 0 01-2.49 5.56v2.23h-2.22v-2.23h-3.34V28.94h3.34V26.7h2.23v2.23c1.84 0 3.34 1.5 3.34 3.33zm-2.23 4.46c0-.62-.5-1.12-1.11-1.12h-3.34v2.23h3.34c.6 0 1.1-.5 1.1-1.11zm0-4.46c0-.61-.5-1.1-1.11-1.1h-3.34v2.22h3.34c.6 0 1.1-.5 1.1-1.12zm34.5 12.25h2.23v18.92c0 3.06-2.5 5.56-5.57 5.56H18.92a5.57 5.57 0 01-5.57-5.56v-12.6A16.77 16.77 0 010 34.5c0-7.91 5.68-14.77 13.35-16.34V5.56c0-3.06 2.5-5.56 5.57-5.56h31.16c3.07 0 5.57 2.5 5.57 5.56v8.9h-2.23v-4.44H15.58v10.04l-.95.14a14.52 14.52 0 00-12.4 14.3c0 7.14 5.33 13.29 12.4 14.3l.95.14v8.93h37.84V44.52zM15.58 5.56V7.8h37.84V5.56c0-1.84-1.5-3.33-3.34-3.33H18.92a3.34 3.34 0 00-3.34 3.33zm37.84 57.88V60.1H15.58v3.34c0 1.84 1.5 3.33 3.34 3.33h31.16c1.84 0 3.34-1.5 3.34-3.33zM7.22 26.75a12.26 12.26 0 0017.22 17.22l-1.41-1.72a10.03 10.03 0 01-14.1-14.09l-1.71-1.4zm18.95 15.5A12.26 12.26 0 008.95 25.03l1.4 1.72a10.03 10.03 0 0114.1 14.09l1.72 1.4zm7.22-7.75c0-8.71-6.81-16.02-15.5-16.63l-.16 2.22A14.5 14.5 0 0131.16 34.5a14.5 14.5 0 01-13.43 14.41l.16 2.22c8.69-.61 15.5-7.92 15.5-16.63zm4.45 16.7v-6.68H35.6V31.16h2.23v-6.68h2.22v6.68h2.23v13.36h-2.23v6.67h-2.22zm0-8.91h2.22v-8.9h-2.22v8.9zm8.9 4.45v-16.7h-2.22v-6.67h2.22v-3.34h2.23v3.34h2.22v6.68h-2.22v16.7h-2.23zm0-18.92h2.23V25.6h-2.23v2.22zm11.13 4.45h2.23v6.68h-2.23v3.34h-2.22v-3.34h-2.23v-6.68h2.23V16.7h2.22v15.58zm0 2.23h-2.22v2.23h2.22V34.5zm8.9-20.03H69v13.35h-2.23v10.02h-2.22V27.82h-2.23V14.47h2.23v-3.34h2.22v3.34zm0 2.22h-2.22v8.9h2.22v-8.9z"/><defs><linearGradient id="paint0_linear" x1="34.5" x2="34.5" y1="69" y2="0" gradientUnits="userSpaceOnUse"><stop stop-color="#7F85A8"/><stop offset="1" stop-color="#6B6B8B"/></linearGradient></defs></svg>
